X:1
T:Title
%%score ( 1 2 ) { 3 | ( 4 5 ) }
L:1/8
Q:1/4=95
M:4/4
K:Ab
V:1 treble nm="Grand Piano, Soprano"
V:2 treble 
V:3 bass nm="Choir Pad, I’m a Subject of the King"
V:4 bass 
V:5 bass 
V:1
 [CE]>[CE] [CA]>[CB] [CA]>[CF] [CE]2 | [CF]2 [DG]6 | [DE]>[DE] [EB]>[Ec] [EB]>[DG] [DF]>[DE] | %3
w: By~Robert~Harkness * * * * * *|||
 [DF]>[DE] [Ec]6 | [CE]>[CE] [CA]>[B,G] [CA]>[DB] [Ec]>[Ec] | %5
w: ||
 [EB]>[EA] [EG]>[=DF] [EG]>[FA] [GB]>[GB] | [_G=A]>[=GB] [_A=d]>[Ac] [AB]>[Ac] [AB]>[=DF] | %7
w: ||
 z2 B4 z2 | [DE]>[DE] [CA]>[CB] [CA]>[CF] [CE]2 | [CF]2 [DG]6 | %10
w: |||
 [DE]>[DE] [EB]>[Ec] [EB]>[DG] [DF]2 | [DE]2 [Ec]6 | [CE]>[CE] [CA]>[CG] [CA]>[DB] [Ec]2 | %13
w: |||
 [EA]>[EA] [Ad]>[Ac] [Ad]>[Ae] [Af]2 | [Ae]>[Ad] [Ac]<.A [Ad]>[Ac] [Gc]2 | [EB]2 [EA]6- | %16
w: |||
 [EA]2 z2 z4 |] %17
w: |
V:2
 x8 | x8 | x8 | x8 | x8 | x8 | x8 | [EG]>[FA] G4- [Ge]2 | x8 | x8 | x8 | x8 | x8 | x8 | x8 | x8 | %16
 x8 |] %17
V:3
 A,>A, E,>E, E,>E, A,2 | E,2 E,2 B,2 B,2 | G,>G, G,>A, G,>B, A,>G, | A,>G, A,6 | %4
 A,>A, E,>E, E,>E, A,>A, | G,>A, B,>B, B,>B,[K:treble] E>E | E>E B,>[K:bass]B, B,>B, B,>B, | %7
 B,>A, B,6 | G,>E, E,>E, E,>E, E,2 | E,2 E,2 B,2 B,2 | G,>G, G,>A, G,>B, A,2 | %11
 G,2 A,>E, F,>G, A,2 | A,>A, E,>E, E,>A, A,2 | C>C D>E D>C D2 | C>D E<.C F>E E2 | D2 C6- | %16
 C2 z2 z4 |] %17
V:4
 A,,>A,, A,,>A,, [E,,A,,]>[E,,A,,] A,,2 | A,,2 B,,2 E,2 E,2 | E,>E, E,>E, E,>E, E,>E, | %3
 E,>E, z z/ E,,/ F,,>G,, A,,2 | A,,>A,, A,,>A,, A,,>A,, A,,>A,, | B,,>C, B,,>B,, E,>E, E,>E, | %6
 E,>E, z2 z4 | G,>F, E,6 | E,2 A,,>A,, [E,,A,,]>[E,,A,,] A,,2 | [E,,A,,]2 B,,2 E,2 E,2 | %10
 E,>E, E,>E, E,>E, E,2 | E,2 A,,2 z4 | A,,>A,, A,,>A,, A,,>A,, z2 | _G,>G, F,>G, F,>E, D,2 | %14
 E,>F, E,<.E, E,>E, E,2 | E,2 A,,6- | A,,2 z2 z4 |] %17
V:5
 x8 | x8 | x8 | z2 A,,4 z2 | x8 | x8 | x8 | x8 | x8 | x8 | x8 | x8 | x8 | x8 | x8 | x8 | x8 |] %17

